app/dist/common/images/instil-bio.svg

<svg height="18" viewBox="0 0 18 18" width="18" xmlns="http://www.w3.org/2000/svg"><path d="m0 0h18v18h-18z" fill="#f0f3fa"/><path d="m11.29 8.5c.91.5 1.71 1.37 1.71 2.5 0 2.5-1.55 3-3.86 3h-2.14v-10h2.14c1.85 0 3.36.58 3.36 2.5 0 1.08-.46 1.67-1.21 2zm-2.29-1c1 0 1.5 0 1.5-.75s-.5-.75-1.5-.75zm0 4.5c1.5 0 2-.42 2-1.25 0-.9-.5-1.25-2-1.25z" fill="#243f75"/><path d="m6 4v10h-1v-10z" fill="#0f75bb"/></svg>

<!-- by TradingView --><svg width="18" height="18" viewBox="0 0 18 18" xmlns="http://www.w3.org/2000/svg"><path fill="#F0F3FA" d="M0 0h18v18H0z"/><path d="M11.29 8.5C12.2 9 13 9.87 13 11c0 2.5-1.55 3-3.86 3H7V4h2.14c1.85 0 3.36.58 3.36 2.5 0 1.08-.46 1.67-1.21 2ZM9 7.5c1 0 1.5 0 1.5-.75S10 6 9 6v1.5ZM9 12c1.5 0 2-.42 2-1.25 0-.9-.5-1.25-2-1.25V12Z" fill="#243F75"/><path d="M6 4v10H5V4h1Z" fill="#0F75BB"/></svg>
